Papirus/16x16/places/folder-visiting.svg

<?xml version="1.0" encoding="UTF-8" standalone="no"?>
<!--Created with Inkscape (http://www.inkscape.org/)-->
<svg xmlns:dc="http://purl.org/dc/elements/1.1/" xmlns:cc="http://creativecommons.org/ns#" xmlns:rdf="http://www.w3.org/1999/02/22-rdf-syntax-ns#" xmlns:svg="http://www.w3.org/2000/svg" xmlns="http://www.w3.org/2000/svg" xmlns:sodipodi="http://sodipodi.sourceforge.net/DTD/sodipodi-0.dtd" xmlns:inkscape="http://www.inkscape.org/namespaces/inkscape" id="svg7384" style="enable-background:new" height="16" width="16" version="1.1" inkscape:version="0.91 r13725" sodipodi:docname="folder-visiting.svg">
    <sodipodi:namedview pagecolor="#ffffff" bordercolor="#666666" borderopacity="1" objecttolerance="10" gridtolerance="10" guidetolerance="10" inkscape:pageopacity="0" inkscape:pageshadow="2" inkscape:window-width="1600" inkscape:window-height="849" id="namedview10" showgrid="false" inkscape:zoom="17.31" inkscape:cx="-2.779661" inkscape:cy="8" inkscape:window-x="0" inkscape:window-y="0" inkscape:window-maximized="1" inkscape:current-layer="svg7384"/>
    <metadata id="metadata90">
        <rdf:RDF>
            <cc:Work rdf:about="">
                <dc:format>
                    image/svg+xml
                </dc:format>
                <dc:type rdf:resource="http://purl.org/dc/dcmitype/StillImage"/>
                <dc:title>
                    Paper Symbolic Icon Theme
                </dc:title>
            </cc:Work>
        </rdf:RDF>
    </metadata>
    <title id="title8473">
        Paper Symbolic Icon Theme
    </title>
    <defs id="defs7386">
        <filter id="filter7554" color-interpolation-filters="sRGB">
            <feBlend id="feBlend7556" in2="BackgroundImage" mode="darken"/>
        </filter>
    </defs>
    <g id="layer1" transform="translate(-466 -224)">
        <path id="path5057-4" opacity=".5" style="block-progression:tb;text-indent:0;color:#000000;enable-background:accumulate;text-transform:none" d="m467 226v11s0 1 1 1h12s1 0 1-1v-9c0-1-1-1-1-1h-5l-2-2h-5s-1 0-1 1z"/>
    </g>
    <path style="opacity:0.2;fill:#000000;fill-opacity:1" d="M 1.8925781,1.0097656 C 1.6569616,1.0341898 1,1.1717203 1,2 L 1,2.8046875 15,10.886719 15,8.578125 Z M 9.3398438,3 15,6.2675781 15,4 c 0,-0.017012 -0.0053,-0.028483 -0.0059,-0.044922 L 13.339844,3 Z M 1,5.1132812 1,7.421875 12.392578,14 14,14 c 0,0 0.857279,-0.01083 0.976562,-0.818359 z M 1,9.7324219 1,12.041016 4.3925781,14 l 4,0 z" id="rect4138" inkscape:connector-curvature="0" sodipodi:nodetypes="csccccccscccccccccccccc"/>
</svg>

<?xml version="1.0" encoding="UTF-8" standalone="no"?>
<!--Created with Inkscape (http://www.inkscape.org/)-->
<svg id="svg7384" xmlns:rdf="http://www.w3.org/1999/02/22-rdf-syntax-ns#" style="enable-background:new" xmlns="http://www.w3.org/2000/svg" height="16" width="16" version="1.1" xmlns:cc="http://creativecommons.org/ns#" xmlns:dc="http://purl.org/dc/elements/1.1/">
 <metadata id="metadata90">
  <rdf:RDF>
   <cc:Work rdf:about="">
    <dc:format>image/svg+xml</dc:format>
    <dc:type rdf:resource="http://purl.org/dc/dcmitype/StillImage"/>
   </cc:Work>
  </rdf:RDF>
 </metadata>
 <g id="layer1" transform="translate(-466 -224)">
  <path id="path5057-4" opacity=".5" style="block-progression:tb;color:#000000;enable-background:accumulate;text-transform:none;text-indent:0" d="m467 226v11s0 1 1 1h12s1 0 1-1v-9c0-1-1-1-1-1h-5l-2-2h-5s-1 0-1 1z"/>
 </g>
 <path id="rect4138" opacity=".2" d="m1.8926 1.0098c-0.2356 0.0244-0.8926 0.1619-0.8926 0.9902v0.8047l14 8.0823v-2.3089zm7.4472 1.9902 5.6602 3.2676v-2.2676c0-0.017012-0.0053-0.028483-0.0059-0.044922l-1.654-0.9551zm-8.3398 2.1133v2.3086l11.393 6.5781h1.607s0.85728-0.01083 0.97656-0.81836zm0 4.6191v2.3086l3.3926 1.959h4z"/>
</svg>
